; generated by PrusaSlicer 2.7.0+MacOS-x64 on 2024-01-05 at 02:15:19 UTC


;
;
; 

; external perimeters extrusion width = 0.60mm
; perimeters extrusion width = 0.50mm
; infill extrusion width = 0.50mm
; solid infill extrusion width = 0.50mm
; top infill extrusion width = 0.45mm
; first layer extrusion width = 0.42mm

M73 P0 R147
M73 Q0 S148
M201 X1000 Y1000 Z200 E5000 ; sets maximum accelerations, mm/sec^2
M203 X200 Y200 Z12 E120 ; sets maximum feedrates, mm / sec
M204 S1250 T1250 ; sets acceleration (S) and retract acceleration (R), mm/sec^2
M205 X8.00 Y8.00 Z0.40 E4.50 ; sets the jerk limits, mm/sec
M205 S0 T0 ; sets the minimum extruding and travel feed rate, mm/sec

; printing object case.stl id:0 copy 0
; stop printing object case.stl id:0 copy 0

;TYPE:Custom
M862.3 P "MK3S" ; printer model check
M862.1 P0.4 ; nozzle diameter check
M115 U3.13.2 ; tell printer latest fw version
G90 ; use absolute coordinates
M83 ; extruder relative mode
M104 S215 ; set extruder temp
M140 S60 ; set bed temp
M190 S60 ; wait for bed temp
M109 S215 ; wait for extruder temp
G28 W ; home all without mesh bed level
G80 X50.4722 Y52.6344 W149.056 H104.741 ; mesh bed levelling

G1 Z0.2 F720
G1 Y-3 F1000 ; go outside print area
G92 E0
G1 X60 E9 F1000 ; intro line
G1 X100 E12.5 F1000 ; intro line

G92 E0
M221 S95

; Don't change E values below. Excessive value can damage the printer.

M907 E538 ; set extruder motor current
G21 ; set units to millimeters
G90 ; use absolute coordinates
M83 ; use relative distances for extrusion
M900 K0.05 ; Filament gcode LA 1.5
M900 K30 ; Filament gcode LA 1.0

M107
;LAYER_CHANGE
;Z:0.2
;HEIGHT:0.2
;BEFORE_LAYER_CHANGE
G92 E0.0
;0.2


G1 E-.8 F2100
G1 Z.2 F720
;AFTER_LAYER_CHANGE
;0.2
; printing object case.stl id:0 copy 0
G1 X134.567 Y152.015 F10800
G1 Z.2 F720
G1 E.8 F2100
M204 S800
;TYPE:Perimeter
;WIDTH:0.419999
G1 F1200
G1 X134.548 Y152.097 E.00264
G1 X134.548 Y152.996 E.02819
G1 X134.458 Y153.808 E.02562
G1 X134.209 Y154.54 E.02424
G1 X133.805 Y155.2 E.02426
G1 X133.272 Y155.753 E.02408
G1 X132.494 Y156.251 E.02896
G1 X131.768 Y156.499 E.02405
G1 X130.956 Y156.588 E.02561
G1 X112.073 Y156.588 E.59206
G1 X111.261 Y156.499 E.02561
G1 X110.53 Y156.249 E.02422
G1 X109.87 Y155.845 E.02426
G1 X109.317 Y155.312 E.02408
G1 X108.819 Y154.534 E.02896
G1 X108.571 Y153.808 E.02405
G1 X108.482 Y152.788 E.0321
G1 X108.476 Y152.072 E.02245
G1 X108.377 Y151.825 E.00834
G1 X108.181 Y151.653 E.00818
G1 X107.921 Y151.588 E.0084
G1 X93.04 Y151.588 E.46658
G1 X92.222 Y151.502 E.02579
G1 X91.487 Y151.255 E.02431
G1 X90.823 Y150.853 E.02434
G1 X90.266 Y150.319 E.02419
G1 X89.765 Y149.539 E.02907
G1 X89.515 Y148.811 E.02413
G1 X89.426 Y147.996 E.02571
G1 X89.426 Y140.119 E.24698
G1 X89.336 Y139.847 E.00898
G1 X89.122 Y139.653 E.00906
G1 X88.862 Y139.589 E.0084
G1 X54.851 Y139.588 E1.06639
G1 X54.039 Y139.499 E.02561
G1 X53.307 Y139.249 E.02425
G1 X52.647 Y138.846 E.02425
G1 X52.094 Y138.312 E.0241
G1 X51.595 Y137.532 E.02903
G1 X51.35 Y136.819 E.02364
G1 X51.259 Y135.996 E.02596
G1 X51.259 Y78.978 E1.78776
G1 X51.349 Y78.168 E.02555
G1 X51.598 Y77.439 E.02415
G1 X52.001 Y76.781 E.02419
G1 X52.535 Y76.231 E.02404
G1 X53.313 Y75.735 E.02893
G1 X54.026 Y75.493 E.02361
G1 X54.848 Y75.406 E.02592
G1 X102.123 Y75.406 E1.48227
G1 X104.545 Y75.365 E.07595
M73 P0 R146
M73 Q0 S147
G1 X106.962 Y75.107 E.07621
G1 X109.345 Y74.632 E.07619
G1 X111.675 Y73.947 E.07615
G1 X113.937 Y73.053 E.07626
G1 X116.108 Y71.961 E.0762
G1 X118.173 Y70.679 E.07621
G1 X120.114 Y69.216 E.07621
G1 X121.916 Y67.585 E.07621
G1 X123.503 Y65.869 E.07329
G1 X124.313 Y65.125 E.03448
G1 X125.202 Y64.527 E.03359
G1 X126.171 Y64.07 E.03359
G1 X127.198 Y63.764 E.0336
G1 X128.264 Y63.616 E.03374
G1 X129.178 Y63.616 E.02866
G1 X137.627 Y64.346 E.2659
G1 X141.403 Y64.574 E.11861
G1 X145.187 Y64.595 E.11865
G1 X148.972 Y64.409 E.11882
G1 X151.818 Y64.112 E.08972
G1 X152.742 Y64.015 E.02913
G1 X156.482 Y63.416 E.11876
G1 X160.183 Y62.613 E.11874
G1 X162.851 Y61.88 E.08675
G1 X163.835 Y61.609 E.032
G1 X167.427 Y60.406 E.11877
G1 X170.947 Y59.008 E.11875
G1 X174.36 Y57.432 E.11787
G1 X181.635 Y53.955 E.25282
G1 X182.475 Y53.596 E.02864
G1 X183.308 Y53.429 E.02664
G1 X183.698 Y53.429 E.01223
G1 X184.308 Y53.457 E.01915
G1 X184.978 Y53.613 E.02157
G1 X185.754 Y53.958 E.02663
G1 X186.567 Y54.558 E.03168
G1 X187.099 Y55.18 E.02566
G1 X197.779 Y77.758 E.78312
G1 X198.302 Y79.016 E.04272
G1 X198.618 Y80.299 E.04143
G1 X198.699 Y81.177 E.02765
G1 X198.741 Y82.102 E.02903
G1 X198.741 Y145.929 E2.00125
G1 X198.652 Y146.757 E.02611
G1 X198.397 Y147.501 E.02466
G1 X197.983 Y148.171 E.02469
G1 X197.436 Y148.729 E.0245
G1 X196.637 Y149.227 E.02952
G1 X195.907 Y149.465 E.02407
G1 X195.061 Y149.541 E.02663
G1 X153.695 Y149.541 E1.297
G1 X153.47 Y149.588 E.00721
G1 X153.252 Y149.756 E.00863
G1 X152.701 Y150.452 E.02783
G1 X152.16 Y150.908 E.02218
G1 X151.539 Y151.248 E.0222
G1 X150.863 Y151.457 E.02219
G1 X150.119 Y151.531 E.02344
G1 X135.047 Y151.535 E.47257
G1 X134.781 Y151.64 E.00897
G1 X134.607 Y151.845 E.00843
G1 X134.581 Y151.956 E.00357
M204 S1000
G1 X134.925 Y152.097 F10800
M204 S800
;TYPE:External perimeter
G1 F1200
G1 X134.925 Y153.017 E.02885
G1 X134.829 Y153.891 E.02757
G1 X134.552 Y154.701 E.02684
G1 X134.106 Y155.432 E.02685
G1 X133.512 Y156.047 E.02681
G1 X132.659 Y156.593 E.03175
G1 X131.851 Y156.869 E.02677
G1 X130.977 Y156.965 E.02757
G1 X112.053 Y156.965 E.59335
G1 X111.179 Y156.869 E.02757
G1 X110.369 Y156.592 E.02684
G1 X109.638 Y156.146 E.02685
G1 X109.023 Y155.552 E.02681
G1 X108.477 Y154.699 E.03175
G1 X108.201 Y153.891 E.02677
G1 X108.105 Y153.017 E.02757
G1 X108.105 Y152.154 E.02706
G1 X108.063 Y152.035 E.00396
G1 X107.918 Y151.965 E.00505
G1 X93.02 Y151.965 E.46712
G1 X92.141 Y151.873 E.02771
G1 X91.327 Y151.599 E.02693
G1 X90.592 Y151.154 E.02694
G1 X89.973 Y150.56 E.0269
G1 X89.423 Y149.705 E.03188
G1 X89.145 Y148.894 E.02688
G1 X89.049 Y148.017 E.02766
G1 X89.05 Y140.155 E.24651
G1 X89.009 Y140.037 E.00392
G1 X88.862 Y139.966 E.00512
G1 X54.83 Y139.965 E1.06705
G1 X53.956 Y139.869 E.02757
G1 X53.146 Y139.592 E.02684
G1 X52.415 Y139.146 E.02685
G1 X51.8 Y138.552 E.02681
G1 X51.254 Y137.699 E.03175
G1 X50.979 Y136.895 E.02664
G1 X50.882 Y136.017 E.0277
G1 X50.882 Y78.957 E1.78907
G1 X50.978 Y78.085 E.02751
G1 X51.255 Y77.277 E.02678
G1 X51.702 Y76.548 E.02681
G1 X52.295 Y75.936 E.02672
G1 X53.148 Y75.393 E.0317
G1 X53.951 Y75.122 E.02657
G1 X54.828 Y75.029 E.02765
G1 X102.114 Y75.029 E1.48262
G1 X104.505 Y74.99 E.07498
G1 X106.888 Y74.737 E.07514
G1 X109.237 Y74.271 E.07509
G1 X111.538 Y73.596 E.07519
G1 X113.768 Y72.716 E.07517
G1 X115.91 Y71.641 E.07514
G1 X117.946 Y70.377 E.07514
G1 X119.861 Y68.936 E.07514
G1 X121.639 Y67.329 E.07514
G1 X123.237 Y65.602 E.07377
G1 X124.078 Y64.828 E.03584
G1 X125.015 Y64.198 E.0354
G1 X126.036 Y63.716 E.0354
G1 X127.118 Y63.394 E.0354
G1 X128.238 Y63.239 E.03545
G1 X129.194 Y63.239 E.02997
G1 X137.65 Y63.97 E.26612
G1 X141.406 Y64.197 E.11798
G1 X145.172 Y64.219 E.11808
G1 X148.935 Y64.034 E.11813
G1 X151.779 Y63.737 E.08966
G1 X152.682 Y63.643 E.02847
G1 X156.402 Y63.048 E.11812
G1 X160.083 Y62.25 E.1181
G1 X163.715 Y61.251 E.11811
G1 X167.278 Y60.059 E.1178
G1 X170.789 Y58.666 E.11843
G1 X174.195 Y57.093 E.11763
G1 X181.48 Y53.612 E.25315
G1 X182.362 Y53.234 E.03009
G1 X183.27 Y53.052 E.02904
G1 X183.819 Y53.052 E.01721
G1 X184.361 Y53.082 E.01702
G1 X185.099 Y53.254 E.02376
G1 X185.944 Y53.63 E.029
G1 X186.826 Y54.28 E.03435
G1 X187.418 Y54.973 E.02858
G1 X198.124 Y77.605 E.785
G1 X198.661 Y78.897 E.04387
G1 X198.991 Y80.236 E.04324
G1 X199.074 Y81.143 E.02856
G1 X199.118 Y82.102 E.0301
G1 X199.118 Y145.949 E2.00187
G1 X199.022 Y146.839 E.02807
G1 X198.74 Y147.663 E.02731
G1 X198.282 Y148.405 E.02734
G1 X197.673 Y149.025 E.02725
G1 X196.799 Y149.57 E.03229
G1 X195.976 Y149.837 E.02713
G1 X195.078 Y149.918 E.02827
G1 X153.691 Y149.918 E1.29766
G1 X153.547 Y149.99 E.00505
G1 X152.973 Y150.716 E.02902
G1 X152.374 Y151.221 E.02457
G1 X151.686 Y151.597 E.02458
G1 X150.938 Y151.828 E.02455
G1 X150.138 Y151.908 E.02521
G1 X135.113 Y151.908 E.4711
G1 X134.992 Y151.952 E.00404
G1 X134.95 Y152.043 E.00314
M204 S1000
;WIPE_START
G1 F8640
G1 X134.925 Y152.097 E-.01374
G1 X134.925 Y153.017 E-.21243
G1 X134.829 Y153.891 E-.20302
G1 X134.552 Y154.701 E-.19767
G1 X134.161 Y155.341 E-.17314
;WIPE_END
G1 Z.6 F720
G1 X150.977 Y110.019 F10800
G1 Z.2 F720
G1 E.8 F2100
M204 S800
;TYPE:Perimeter
G1 F1200
G1 X151.044 Y110.05 E.00231
G1 X151.402 Y110.349 E.01462
G1 X151.67 Y110.731 E.01463
G1 X151.831 Y111.168 E.0146
G1 X151.872 Y111.632 E.01461
G1 X151.792 Y112.092 E.01464
G1 X151.596 Y112.515 E.01462
G1 X151.297 Y112.872 E.0146
G1 X150.916 Y113.141 E.01462
G1 X150.479 Y113.301 E.01459
G1 X150.014 Y113.343 E.01464
G1 X149.555 Y113.263 E.01461
G1 X149.132 Y113.067 E.01462
G1 X148.774 Y112.768 E.01462
G1 X148.506 Y112.387 E.01461
G1 X148.346 Y111.949 E.01462
G1 X148.304 Y111.485 E.01461
G1 X148.384 Y111.026 E.01461
G1 X148.558 Y110.647 E.01308
G1 X148.879 Y110.245 E.01613
G1 X149.26 Y109.977 E.01461
G1 X149.698 Y109.816 E.01463
G1 X150.112 Y109.777 E.01304
G1 X150.621 Y109.854 E.01614
G1 X150.923 Y109.994 E.01044
M204 S1000
G1 X150.829 Y110.361 F10800
M204 S800
;TYPE:External perimeter
G1 F1200
G1 X151.103 Y110.579 E.01098
G1 X151.322 Y110.875 E.01154
G1 X151.457 Y111.217 E.01153
G1 X151.498 Y111.583 E.01155
G1 X151.444 Y111.947 E.01154
G1 X151.297 Y112.285 E.01156
G1 X151.068 Y112.573 E.01154
G1 X150.772 Y112.792 E.01154
G1 X150.429 Y112.927 E.01156
G1 X150.064 Y112.969 E.01152
G1 X149.699 Y112.914 E.01157
G1 X149.362 Y112.768 E.01152
G1 X149.073 Y112.538 E.01158
G1 X148.854 Y112.242 E.01154
G1 X148.719 Y111.9 E.01153
G1 X148.678 Y111.534 E.01155
G1 X148.732 Y111.17 E.01154
G1 X148.863 Y110.869 E.01029
G1 X149.108 Y110.544 E.01276
G1 X149.404 Y110.325 E.01154
G1 X149.747 Y110.19 E.01156
G1 X150.073 Y110.152 E.01029
G1 X150.477 Y110.203 E.01277
G1 X150.776 Y110.333 E.01022
M204 S1000
;WIPE_START
G1 F8640
G1 X150.829 Y110.361 E-.01384
G1 X151.103 Y110.579 E-.08085
G1 X151.322 Y110.875 E-.08502
G1 X151.457 Y111.217 E-.0849
G1 X151.498 Y111.583 E-.08504
G1 X151.444 Y111.947 E-.08497
G1 X151.297 Y112.285 E-.08511
G1 X151.068 Y112.573 E-.08496
G1 X150.772 Y112.792 E-.08502
G1 X150.429 Y112.927 E-.08511
G1 X150.321 Y112.939 E-.02518
;WIPE_END
G1 Z.6 F720
G1 X132.578 Y91.62 F10800
G1 Z.2 F720
G1 E.8 F2100
M204 S800
;TYPE:Perimeter
G1 F1200
G1 X132.62 Y91.681 E.00232
G1 X132.765 Y92.071 E.01305
G1 X132.822 Y92.582 E.01612
G1 X132.743 Y93.042 E.01463
G1 X132.546 Y93.465 E.01463
G1 X132.248 Y93.823 E.0146
G1 X131.834 Y94.104 E.01569
G1 X131.429 Y94.251 E.01351
G1 X130.964 Y94.293 E.01464
G1 X130.505 Y94.213 E.01461
G1 X130.178 Y94.076 E.01112
G1 X129.773 Y93.774 E.01584
G1 X129.471 Y93.369 E.01584
G1 X129.296 Y92.899 E.01572
G1 X129.254 Y92.435 E.01461
G1 X129.352 Y91.933 E.01604
G1 X129.53 Y91.553 E.01316
G1 X129.829 Y91.195 E.01462
G1 X130.21 Y90.927 E.01461
G1 X130.648 Y90.766 E.01463
G1 X131.062 Y90.728 E.01304
G1 X131.569 Y90.804 E.01607
G1 X131.994 Y91.001 E.01469
G1 X132.352 Y91.299 E.0146
G1 X132.543 Y91.571 E.01042
M204 S1000
G1 X132.266 Y91.817 F10800
M204 S800
;TYPE:External perimeter
G1 F1200
G1 X132.272 Y91.825 E.00031
G1 X132.393 Y92.13 E.01029
G1 X132.444 Y92.568 E.01383
G1 X132.394 Y92.898 E.01046
G1 X132.247 Y93.235 E.01153
G1 X132.018 Y93.523 E.01154
G1 X131.69 Y93.756 E.01261
G1 X131.379 Y93.877 E.01046
G1 X131.013 Y93.919 E.01155
G1 X130.649 Y93.865 E.01154
G1 X130.344 Y93.738 E.01036
G1 X130.024 Y93.489 E.01271
G1 X129.805 Y93.193 E.01154
G1 X129.67 Y92.85 E.01156
G1 X129.628 Y92.484 E.01155
G1 X129.7 Y92.077 E.01296
G1 X129.829 Y91.782 E.0101
G1 X130.058 Y91.494 E.01154
G1 X130.354 Y91.275 E.01154
G1 X130.697 Y91.14 E.01156
G1 X131.023 Y91.103 E.01029
G1 X131.427 Y91.153 E.01276
G1 X131.765 Y91.3 E.01156
G1 X132.053 Y91.529 E.01154
G1 X132.231 Y91.769 E.00937
M204 S1000
;WIPE_START
G1 F8640
G1 X132.266 Y91.817 E-.01372
G1 X132.272 Y91.825 E-.00231
G1 X132.393 Y92.13 E-.07576
G1 X132.444 Y92.568 E-.10182
G1 X132.394 Y92.898 E-.07707
G1 X132.247 Y93.235 E-.0849
G1 X132.018 Y93.523 E-.08496
G1 X131.69 Y93.756 E-.0929
G1 X131.379 Y93.877 E-.07705
G1 X131.013 Y93.919 E-.08507
G1 X130.649 Y93.865 E-.08497
G1 X130.571 Y93.833 E-.01947
;WIPE_END
G1 Z.6 F720
G1 X113.564 Y110.729 F10800
G1 Z.2 F720
G1 E.8 F2100
M204 S800
;TYPE:Perimeter
G1 F1200
G1 X113.728 Y111.147 E.01408
G1 X113.768 Y111.667 E.01635
G1 X113.693 Y112.092 E.01353
G1 X113.497 Y112.515 E.01462
G1 X113.198 Y112.873 E.01462
G1 X112.817 Y113.141 E.01461
G1 X112.379 Y113.301 E.01462
G1 X111.915 Y113.343 E.01461
G1 X111.455 Y113.263 E.01464
G1 X111.032 Y113.067 E.01462
G1 X110.675 Y112.768 E.0146
G1 X110.406 Y112.387 E.01462
G1 X110.246 Y111.949 E.01462
G1 X110.204 Y111.485 E.01461
G1 X110.284 Y111.026 E.01461
G1 X110.48 Y110.603 E.01462
G1 X110.779 Y110.245 E.01462
G1 X111.16 Y109.977 E.01461
G1 X111.598 Y109.816 E.01463
G1 X112.013 Y109.777 E.01307
G1 X112.521 Y109.854 E.01611
G1 X112.817 Y109.977 E.01005
G1 X113.226 Y110.268 E.01574
G1 X113.539 Y110.666 E.01588
G1 X113.542 Y110.673 E.00024
M204 S1000
G1 X113.23 Y110.895 F10800
M204 S800
;TYPE:External perimeter
G1 F1200
G1 X113.357 Y111.218 E.01088
G1 X113.394 Y111.618 E.0126
G1 X113.344 Y111.947 E.01043
G1 X113.197 Y112.285 E.01156
G1 X112.968 Y112.573 E.01154
G1 X112.672 Y112.792 E.01154
G1 X112.329 Y112.927 E.01156
G1 X111.964 Y112.969 E.01152
G1 X111.6 Y112.915 E.01154
G1 X111.262 Y112.768 E.01156
G1 X110.974 Y112.538 E.01156
G1 X110.755 Y112.242 E.01154
G1 X110.62 Y111.9 E.01153
G1 X110.578 Y111.534 E.01155
G1 X110.633 Y111.17 E.01154
G1 X110.779 Y110.832 E.01154
G1 X111.009 Y110.544 E.01156
G1 X111.305 Y110.325 E.01154
G1 X111.647 Y110.19 E.01153
G1 X111.973 Y110.152 E.01029
G1 X112.377 Y110.203 E.01277
G1 X112.672 Y110.325 E.01001
G1 X113.003 Y110.579 E.01308
G1 X113.199 Y110.844 E.01033
M204 S1000
;WIPE_START
G1 F8640
G1 X113.23 Y110.895 E-.01378
G1 X113.357 Y111.218 E-.08014
G1 X113.394 Y111.618 E-.09276
G1 X113.344 Y111.947 E-.07684
G1 X113.197 Y112.285 E-.08511
G1 X112.968 Y112.573 E-.08496
G1 X112.672 Y112.792 E-.08502
G1 X112.329 Y112.927 E-.08511
G1 X111.964 Y112.969 E-.08484
G1 X111.6 Y112.915 E-.08497
G1 X111.495 Y112.869 E-.02647
;WIPE_END
G1 Z.6 F720
G1 X132.756 Y130.142 F10800
G1 Z.2 F720
G1 E.8 F2100
M204 S800
;TYPE:Perimeter
G1 F1200
G1 X132.778 Y130.197 E.00186
G1 X132.822 Y130.682 E.01527
G1 X132.743 Y131.142 E.01463
G1 X132.546 Y131.565 E.01463
G1 X132.248 Y131.922 E.01458
G1 X131.866 Y132.191 E.01465
G1 X131.429 Y132.351 E.01459
G1 X130.964 Y132.393 E.01464
G1 X130.505 Y132.313 E.01461
G1 X130.082 Y132.117 E.01462
G1 X129.724 Y131.818 E.01462
G1 X129.456 Y131.437 E.01461
G1 X129.296 Y130.999 E.01462
G1 X129.254 Y130.535 E.01461
G1 X129.334 Y130.075 E.01464
G1 X129.53 Y129.652 E.01462
G1 X129.829 Y129.295 E.0146
G1 X130.21 Y129.026 E.01462
G1 X130.648 Y128.866 E.01462
G1 X131.062 Y128.827 E.01304
G1 X131.571 Y128.904 E.01614
G1 X131.994 Y129.1 E.01462
G1 X132.267 Y129.31 E.0108
G1 X132.589 Y129.716 E.01625
G1 X132.734 Y130.086 E.01246
M204 S1000
G1 X132.402 Y130.255 F10800
M204 S800
;TYPE:External perimeter
G1 F1200
G1 X132.407 Y130.267 E.00041
G1 X132.449 Y130.633 E.01155
G1 X132.394 Y130.997 E.01154
G1 X132.247 Y131.335 E.01156
G1 X132.018 Y131.623 E.01154
G1 X131.722 Y131.842 E.01154
G1 X131.379 Y131.977 E.01156
G1 X131.014 Y132.019 E.01152
G1 X130.649 Y131.964 E.01157
G1 X130.312 Y131.818 E.01152
G1 X130.024 Y131.588 E.01156
G1 X129.805 Y131.292 E.01154
G1 X129.67 Y130.95 E.01153
G1 X129.628 Y130.584 E.01155
G1 X129.682 Y130.22 E.01154
G1 X129.829 Y129.882 E.01156
G1 X130.058 Y129.594 E.01154
G1 X130.354 Y129.375 E.01154
G1 X130.697 Y129.24 E.01156
G1 X131.023 Y129.202 E.01029
G1 X131.427 Y129.253 E.01277
G1 X131.765 Y129.4 E.01156
G1 X132.025 Y129.599 E.01027
G1 X132.272 Y129.925 E.01282
G1 X132.38 Y130.199 E.00923
M204 S1000
;WIPE_START
G1 F8640
G1 X132.402 Y130.255 E-.01389
G1 X132.407 Y130.267 E-.003
G1 X132.449 Y130.633 E-.08507
G1 X132.394 Y130.997 E-.085
