; generated by PrusaSlicer 2.7.0+MacOS-x64 on 2024-01-05 at 02:08:57 UTC


;
;
; 

; external perimeters extrusion width = 0.60mm
; perimeters extrusion width = 0.50mm
; infill extrusion width = 0.50mm
; solid infill extrusion width = 0.50mm
; top infill extrusion width = 0.45mm
; first layer extrusion width = 0.42mm

M73 P0 R41
M73 Q0 S41
M201 X1000 Y1000 Z200 E5000 ; sets maximum accelerations, mm/sec^2
M203 X200 Y200 Z12 E120 ; sets maximum feedrates, mm / sec
M204 S1250 T1250 ; sets acceleration (S) and retract acceleration (R), mm/sec^2
M205 X8.00 Y8.00 Z0.40 E4.50 ; sets the jerk limits, mm/sec
M205 S0 T0 ; sets the minimum extruding and travel feed rate, mm/sec

; printing object keyplate.stl id:0 copy 0
; stop printing object keyplate.stl id:0 copy 0

;TYPE:Custom
M862.3 P "MK3S" ; printer model check
M862.1 P0.4 ; nozzle diameter check
M115 U3.13.2 ; tell printer latest fw version
G90 ; use absolute coordinates
M83 ; extruder relative mode
M104 S215 ; set extruder temp
M140 S60 ; set bed temp
M190 S60 ; wait for bed temp
M109 S215 ; wait for extruder temp
G28 W ; home all without mesh bed level
G80 X53.5722 Y55.7245 W142.856 H98.551 ; mesh bed levelling

G1 Z0.2 F720
G1 Y-3 F1000 ; go outside print area
G92 E0
G1 X60 E9 F1000 ; intro line
G1 X100 E12.5 F1000 ; intro line

G92 E0
M221 S95

; Don't change E values below. Excessive value can damage the printer.

M907 E538 ; set extruder motor current
G21 ; set units to millimeters
G90 ; use absolute coordinates
M83 ; use relative distances for extrusion
M900 K0.05 ; Filament gcode LA 1.5
M900 K30 ; Filament gcode LA 1.0

M107
;LAYER_CHANGE
;Z:0.2
;HEIGHT:0.2
;BEFORE_LAYER_CHANGE
G92 E0.0
;0.2


G1 E-.8 F2100
G1 Z.2 F720
;AFTER_LAYER_CHANGE
;0.2
; printing object keyplate.stl id:0 copy 0
G1 X91.146 Y119.237 F10800
G1 Z.2 F720
G1 E.8 F2100
M204 S800
;TYPE:Perimeter
;WIDTH:0.419999
G1 F1200
G1 X91.156 Y119.298 E.00194
G1 X91.156 Y133.741 E.45285
G1 X91.129 Y133.912 E.00543
G1 X90.978 Y134.152 E.00889
G1 X90.759 Y134.28 E.00795
G1 X90.519 Y134.306 E.00757
G1 X76.147 Y134.306 E.45062
G1 X75.869 Y134.233 E.00901
G1 X75.676 Y134.054 E.00825
G1 X75.582 Y133.771 E.00935
G1 X75.582 Y119.298 E.45379
G1 X75.732 Y118.914 E.01293
G1 X75.925 Y118.778 E.0074
G1 X76.147 Y118.732 E.00711
G1 X90.59 Y118.732 E.45285
G1 X90.789 Y118.768 E.00634
G1 X91.043 Y118.958 E.00995
G1 X91.125 Y119.114 E.00553
G1 X91.136 Y119.178 E.00204
M204 S1000
G1 X90.779 Y119.298 F10800
M204 S800
;TYPE:External perimeter
G1 F1200
G1 X90.779 Y133.741 E.45285
G1 X90.719 Y133.878 E.00469
G1 X90.59 Y133.929 E.00435
G1 X76.147 Y133.929 E.45285
G1 X76.01 Y133.869 E.00469
G1 X75.959 Y133.741 E.00432
G1 X75.959 Y119.298 E.45285
G1 X76.009 Y119.17 E.00431
G1 X76.147 Y119.109 E.00473
G1 X90.59 Y119.109 E.45285
G1 X90.741 Y119.185 E.0053
G1 X90.76 Y119.241 E.00185
M204 S1000
;WIPE_START
G1 F8640
G1 X90.779 Y119.298 E-.01387
G1 X90.779 Y122.702 E-.78613
;WIPE_END
G1 Z.6 F720
G1 X72.441 Y133.954 F10800
G1 Z.2 F720
G1 E.8 F2100
M204 S800
;TYPE:Perimeter
G1 F1200
G1 X72.384 Y133.906 E.00234
G1 X72.172 Y133.561 E.0127
G1 X72.091 Y133.21 E.01129
G1 X72.106 Y133.741 E.01666
G1 X72.065 Y133.95 E.00668
G1 X71.923 Y134.157 E.00787
G1 X71.763 Y134.26 E.00597
G1 X71.54 Y134.306 E.00714
G1 X57.097 Y134.306 E.45285
G1 X56.874 Y134.26 E.00714
G1 X56.699 Y134.142 E.00662
G1 X56.579 Y133.966 E.00668
G1 X56.532 Y133.741 E.00721
G1 X56.532 Y119.298 E.45285
G1 X56.59 Y119.048 E.00805
G1 X56.733 Y118.865 E.00728
G1 X56.995 Y118.741 E.00909
G1 X57.097 Y118.732 E.00321
G1 X71.54 Y118.732 E.45285
G1 X71.695 Y118.754 E.00491
G1 X72.081 Y119.298 E.02091
G1 X72.057 Y118.481 E.02563
G1 X72.162 Y118.005 E.01528
G1 X72.295 Y117.762 E.00869
G1 X72.647 Y117.41 E.01561
;WIDTH:0.438772
G1 X73.171 Y117.212 E.01844
;WIDTH:0.446358
G1 X73.529 Y117.207 E.01201
G1 X74.034 Y117.418 E.01836
;WIDTH:0.419999
G1 X74.246 Y117.587 E.0085
G1 X74.519 Y117.968 E.0147
G1 X74.631 Y118.483 E.01652
G1 X74.631 Y133.065 E.45721
G1 X74.547 Y133.493 E.01368
G1 X74.272 Y133.945 E.01659
G1 X73.814 Y134.239 E.01706
;WIDTH:0.467079
G1 X73.531 Y134.338 E.01057
;WIDTH:0.467519
G1 X73.114 Y134.337 E.01472
G1 X72.581 Y134.07 E.02105
;WIDTH:0.419999
G1 X72.487 Y133.993 E.00381
M204 S1000
G1 X72.755 Y133.722 F10800
M204 S800
;TYPE:External perimeter
G1 F1200
G1 X72.683 Y133.677 E.00266
G1 X72.535 Y133.462 E.00818
G1 X72.434 Y133.065 E.01284
G1 X72.434 Y118.481 E.45727
G1 X72.556 Y118.038 E.01441
G1 X72.892 Y117.708 E.01477
G1 X73.322 Y117.592 E.01396
G1 X73.551 Y117.612 E.00721
G1 X73.948 Y117.817 E.01401
G1 X74.186 Y118.155 E.01296
G1 X74.254 Y118.483 E.0105
G1 X74.254 Y133.065 E.45721
G1 X74.206 Y133.332 E.00851
G1 X73.949 Y133.725 E.01472
G1 X73.531 Y133.938 E.01471
G1 X73.062 Y133.912 E.01473
G1 X72.806 Y133.753 E.00945
M204 S1000
;WIPE_START
G1 F8640
G1 X72.755 Y133.722 E-.01378
G1 X72.683 Y133.677 E-.0196
G1 X72.535 Y133.462 E-.06027
G1 X72.434 Y133.065 E-.09459
G1 X72.434 Y130.416 E-.61176
;WIPE_END
G1 Z.6 F720
G1 X71.729 Y133.741 F10800
G1 Z.2 F720
G1 E.8 F2100
M204 S800
G1 F1200
G1 X71.671 Y133.877 E.00464
G1 X71.54 Y133.929 E.00442
G1 X57.097 Y133.929 E.45285
G1 X56.964 Y133.874 E.00451
G1 X56.909 Y133.741 E.00451
G1 X56.909 Y119.298 E.45285
G1 X56.976 Y119.154 E.00498
G1 X57.097 Y119.109 E.00405
G1 X71.592 Y119.116 E.45448
G1 X71.729 Y119.298 E.00714
G1 X71.729 Y133.681 E.45097
M204 S1000
;WIPE_START
G1 F8640
G1 X71.729 Y133.741 E-.01385
G1 X71.671 Y133.877 E-.03414
G1 X71.54 Y133.929 E-.03254
G1 X68.424 Y133.929 E-.71947
;WIPE_END
G1 Z.6 F720
G1 X72.081 Y119.298 F10800
G1 Z.2 F720
G1 E.8 F2100
M204 S800
;TYPE:Perimeter
;WIDTH:0.370922
G1 F1200
G1 X72.081 Y133.065 E.37547
;WIDTH:0.379024
G1 X72.085 Y133.159 E.00263
M204 S1000
;WIPE_START
G1 F8640
G1 X72.081 Y133.065 E-.02172
;WIPE_END
G1 E-.77828 F2100
G1 Z.6 F720
G1 X71.761 Y115.157 F10800
G1 Z.2 F720
G1 E.8 F2100
M204 S800
;WIDTH:0.419999
G1 F1200
G1 X71.694 Y115.235 E.00322
G1 X71.19 Y115.256 E.01582
G1 X57.048 Y115.254 E.44341
G1 X56.902 Y115.221 E.00469
M73 P1 R41
M73 Q1 S41
G1 X56.733 Y115.123 E.00613
G1 X56.59 Y114.94 E.00728
G1 X56.532 Y114.691 E.00802
G1 X56.532 Y100.248 E.45285
G1 X56.59 Y99.998 E.00805
M73 P1 R40
G1 X56.733 Y99.815 E.00728
G1 X56.995 Y99.692 E.00908
G1 X57.097 Y99.682 E.00321
G1 X71.545 Y99.682 E.45301
G1 X71.694 Y99.704 E.00472
G1 X72.081 Y100.248 E.02093
G1 X72.057 Y99.43 E.02566
G1 X72.172 Y98.933 E.01599
G1 X72.317 Y98.683 E.00906
G1 X72.677 Y98.342 E.01555
;WIDTH:0.46206
G1 X73.15 Y98.161 E.01765
G1 X73.582 Y98.175 E.01506
;WIDTH:0.434957
G1 X74.032 Y98.356 E.01581
;WIDTH:0.419999
G1 X74.428 Y98.751 E.01754
G1 X74.516 Y98.933 E.00634
G1 X74.631 Y99.43 E.01599
G1 X74.631 Y115.509 E.50414
G1 X74.516 Y116.006 E.01599
G1 X74.37 Y116.256 E.00908
G1 X73.993 Y116.608 E.01617
;WIDTH:0.446358
G1 X73.493 Y116.777 E.01771
;WIDTH:0.448438
G1 X73.291 Y116.795 E.00684
G1 X72.78 Y116.649 E.01792
;WIDTH:0.419999
G1 X72.521 Y116.46 E.01005
G1 X72.225 Y116.136 E.01376
G1 X72.077 Y115.659 E.01566
G1 X72.077 Y114.785 E.0274
G1 X71.8 Y115.111 E.01341
M204 S1000
G1 X71.591 Y114.872 F10800
M204 S800
;TYPE:External perimeter
G1 F1200
G1 X57.081 Y114.878 E.45495
G1 X56.976 Y114.835 E.00356
G1 X56.909 Y114.691 E.00498
G1 X56.909 Y100.248 E.45285
G1 X56.976 Y100.104 E.00498
G1 X57.097 Y100.059 E.00405
G1 X71.592 Y100.066 E.45448
G1 X71.729 Y100.248 E.00714
G1 X71.729 Y114.691 E.45285
G1 X71.628 Y114.824 E.00524
M204 S1000
G1 X72.077 Y114.785 F10800
M204 S800
;TYPE:Perimeter
;WIDTH:0.379024
G1 F1200
G1 X72.081 Y114.691 E.00263
;WIDTH:0.370826
G1 X72.081 Y100.248 E.3938
M204 S1000
;WIPE_START
G1 F8640
G1 X72.081 Y103.713 E-.8
;WIPE_END
G1 Z.6 F720
G1 X72.9 Y98.665 F10800
G1 Z.2 F720
G1 E.8 F2100
M204 S800
;TYPE:External perimeter
;WIDTH:0.419998
G1 F1200
G1 X72.931 Y98.636 E.00133
G1 X73.356 Y98.54 E.01366
G1 X73.666 Y98.598 E.00989
G1 X73.839 Y98.685 E.00607
G1 X74.152 Y99.033 E.01468
G1 X74.254 Y99.43 E.01285
G1 X74.253 Y115.509 E.50414
G1 X74.122 Y115.967 E.01494
G1 X73.754 Y116.303 E.01562
G1 X73.659 Y116.329 E.00309
G1 X73.295 Y116.4 E.01163
G1 X72.849 Y116.254 E.01471
G1 X72.535 Y115.906 E.0147
G1 X72.434 Y115.509 E.01284
G1 X72.434 Y99.43 E.50414
G1 X72.565 Y98.972 E.01494
G1 X72.856 Y98.705 E.01238
M204 S1000
;WIPE_START
G1 F8640
G1 X72.9 Y98.665 E-.01373
G1 X72.931 Y98.636 E-.0098
G1 X73.356 Y98.54 E-.10061
G1 X73.666 Y98.598 E-.07282
G1 X73.839 Y98.685 E-.04471
G1 X74.152 Y99.033 E-.10807
G1 X74.254 Y99.43 E-.09465
G1 X74.254 Y100.97 E-.35561
;WIPE_END
G1 Z.6 F720
G1 X90.65 Y115.245 F10800
G1 Z.2 F720
G1 E.8 F2100
M204 S800
;TYPE:Perimeter
;WIDTH:0.419999
G1 F1200
G1 X90.59 Y115.256 E.00191
G1 X76.147 Y115.256 E.45285
G1 X75.969 Y115.227 E.00565
G1 X75.733 Y115.076 E.00878
G1 X75.59 Y114.788 E.01008
G1 X75.582 Y114.691 E.00305
G1 X75.582 Y100.248 E.45285
G1 X75.733 Y99.863 E.01297
G1 X75.969 Y99.711 E.0088
G1 X76.147 Y99.682 E.00565
G1 X90.59 Y99.682 E.45285
G1 X90.789 Y99.718 E.00634
G1 X91.043 Y99.908 E.00995
G1 X91.125 Y100.064 E.00553
G1 X91.156 Y100.248 E.00585
G1 X91.156 Y114.691 E.45285
G1 X91.125 Y114.874 E.00582
G1 X90.929 Y115.143 E.01044
G1 X90.789 Y115.22 E.00501
G1 X90.709 Y115.235 E.00255
M204 S1000
G1 X90.59 Y114.879 F10800
M204 S800
;TYPE:External perimeter
G1 F1200
G1 X76.147 Y114.879 E.45285
G1 X76.009 Y114.819 E.00472
G1 X75.959 Y114.691 E.00431
G1 X75.959 Y100.248 E.45285
G1 X76.048 Y100.088 E.00574
G1 X76.147 Y100.059 E.00323
G1 X90.59 Y100.059 E.45285
G1 X90.741 Y100.135 E.0053
G1 X90.779 Y100.248 E.00374
G1 X90.768 Y114.752 E.45476
G1 X90.656 Y114.867 E.00503
M73 Q1 S40
G1 X90.649 Y114.869 E.00023
M204 S1000
;WIPE_START
G1 F8640
G1 X90.59 Y114.879 E-.01382
G1 X87.185 Y114.879 E-.78618
;WIPE_END
G1 Z.6 F720
G1 X109.524 Y111.784 F10800
G1 Z.2 F720
G1 E.8 F2100
M204 S800
;TYPE:Perimeter
G1 F1200
G1 X109.485 Y111.519 E.0084
G1 X109.523 Y111.009 E.01603
G1 X109.755 Y110.362 E.02155
G1 X110.144 Y109.82 E.02092
G1 X110.657 Y109.402 E.02075
G1 X111.261 Y109.131 E.02076
G1 X111.801 Y109.04 E.01717
G1 X112.063 Y109.025 E.00823
G1 X112.573 Y109.093 E.01613
G1 X113.195 Y109.336 E.02094
G1 X113.704 Y109.745 E.02047
G1 X113.687 Y109.012 E.02299
G1 X113.681 Y98.198 E.33906
G1 X113.712 Y98.015 E.00582
G1 X113.907 Y97.745 E.01044
G1 X114.145 Y97.642 E.00813
G1 X128.693 Y97.632 E.45614
G1 X128.967 Y97.705 E.00889
G1 X129.178 Y97.912 E.00927
G1 X129.255 Y98.198 E.00929
G1 X129.255 Y112.641 E.45285
G1 X129.225 Y112.824 E.00581
G1 X129.029 Y113.093 E.01044
G1 X128.888 Y113.17 E.00504
G1 X128.69 Y113.206 E.00631
G1 X115.458 Y113.198 E.41488
G1 X114.917 Y113.152 E.01702
G1 X114.295 Y113.036 E.01984
G1 X114.038 Y112.858 E.0098
G1 X113.832 Y113.233 E.01342
G1 X113.345 Y113.688 E.0209
G1 X112.831 Y113.938 E.01792
G1 X112.573 Y114.026 E.00855
G1 X112.063 Y114.093 E.01613
G1 X111.404 Y114.026 E.02077
G1 X110.783 Y113.786 E.02087
G1 X110.247 Y113.372 E.02124
G1 X110.18 Y113.295 E.0032
G1 X110.204 Y113.948 E.02049
G1 X110.205 Y126.691 E.39955
G1 X110.175 Y126.874 E.00581
G1 X109.979 Y127.143 E.01044
G1 X109.689 Y127.254 E.00974
G1 X109.64 Y127.256 E.00154
G1 X95.197 Y127.256 E.45285
G1 X94.998 Y127.22 E.00634
G1 X94.745 Y127.03 E.00992
G1 X94.64 Y126.788 E.00827
G1 X94.631 Y126.691 E.00305
G1 X94.631 Y112.248 E.45285
G1 X94.662 Y112.064 E.00585
G1 X94.858 Y111.795 E.01044
G1 X95.148 Y111.684 E.00974
G1 X95.197 Y111.682 E.00154
G1 X107.919 Y111.683 E.39889
G1 X108.741 Y111.71 E.02579
G1 X109.464 Y111.778 E.02277
M204 S1000
G1 X109.702 Y112.297 F10800
M204 S800
;TYPE:External perimeter
G1 F1200
G1 X109.79 Y112.946 E.02054
G1 X109.826 Y113.929 E.03084
G1 X109.828 Y126.691 E.40014
G1 X109.753 Y126.841 E.00526
G1 X109.64 Y126.879 E.00374
G1 X95.197 Y126.879 E.45285
G1 X95.046 Y126.804 E.00529
G1 X95.009 Y126.691 E.00373
G1 X95.009 Y112.248 E.45285
G1 X95.084 Y112.097 E.00529
M73 P2 R40
M73 Q2 S40
G1 X95.197 Y112.059 E.00374
G1 X107.919 Y112.06 E.39889
G1 X108.728 Y112.087 E.02538
G1 X109.555 Y112.167 E.02605
G1 X109.657 Y112.258 E.00429
M204 S1000
;WIPE_START
G1 F8640
G1 X109.702 Y112.297 E-.01375
G1 X109.79 Y112.946 E-.15123
G1 X109.826 Y113.929 E-.22713
G1 X109.826 Y115.695 E-.40789
;WIPE_END
G1 Z.6 F720
G1 X113.813 Y112.396 F10800
G1 Z.2 F720
G1 E.8 F2100
M204 S800
;WIDTH:0.439393
G1 F1200
G1 X113.811 Y112.414 E.0006
G1 X113.767 Y112.576 E.00553
;WIDTH:0.429581
G1 X113.524 Y113.015 E.01613
;WIDTH:0.419999
G1 X113.097 Y113.404 E.01811
G1 X112.573 Y113.638 E.01799
G1 X112.013 Y113.72 E.01775
G1 X111.453 Y113.652 E.01769
G1 X110.93 Y113.438 E.01772
G1 X110.488 Y113.082 E.01779
G1 X110.303 Y112.803 E.0105
G1 X110.163 Y112.569 E.00855
;WIDTH:0.4177
G1 X110.008 Y112.092 E.01563
;WIDTH:0.419999
G1 X109.868 Y111.612 E.01568
G1 X109.899 Y111.037 E.01805
G1 X110.105 Y110.502 E.01798
G1 X110.443 Y110.049 E.01772
G1 X110.887 Y109.701 E.01769
G1 X111.405 Y109.479 E.01767
G1 X111.964 Y109.399 E.01771
G1 X112.524 Y109.467 E.01769
G1 X113.047 Y109.683 E.01774
G1 X113.482 Y110.051 E.01787
;WIDTH:0.431164
G1 X113.768 Y110.542 E.01834
G1 X113.93 Y111.529 E.03229
;WIDTH:0.413425
G1 X113.87 Y111.972 E.01377
;WIDTH:0.439393
G1 X113.821 Y112.337 E.01214
M204 S1000
;WIPE_START
G1 F8640
G1 X113.813 Y112.396 E-.01375
G1 X113.811 Y112.414 E-.00418
G1 X113.767 Y112.576 E-.03876
;WIPE_END
G1 E-.74331 F2100
G1 Z.6 F720
G1 X128.966 Y131.931 F10800
G1 Z.2 F720
G1 E.8 F2100
M204 S800
;TYPE:Perimeter
;WIDTH:0.419999
G1 F1200
G1 X128.744 Y132.114 E.00902
G1 X128.144 Y132.2 E.019
G1 X127.505 Y132.249 E.02009
G1 X126.975 Y132.256 E.01662
G1 X114.247 Y132.256 E.39908
G1 X114.048 Y132.22 E.00634
G1 X113.794 Y132.03 E.00995
G1 X113.69 Y131.788 E.00826
G1 X113.681 Y117.248 E.45589
G1 X113.758 Y116.963 E.00926
G1 X113.966 Y116.757 E.00918
G1 X114.247 Y116.682 E.00912
G1 X114.469 Y116.682 E.00696
G1 X128.69 Y116.682 E.44589
G1 X128.888 Y116.718 E.00631
G1 X129.142 Y116.908 E.00995
G1 X129.225 Y117.064 E.00554
G1 X129.255 Y117.248 E.00585
G1 X129.252 Y128.47 E.35186
G1 X129.238 Y128.866 E.01242
G1 X129.691 Y128.469 E.01889
G1 X130.307 Y128.182 E.02131
G1 X130.964 Y128.075 E.02087
G1 X131.623 Y128.142 E.02077
G1 X132.241 Y128.378 E.02074
G1 X132.778 Y128.765 E.02075
G1 X133.196 Y129.28 E.0208
G1 X133.461 Y129.896 E.02103
G1 X133.517 Y130.47 E.01808
G1 X133.494 Y130.793 E.01015
G1 X133.468 Y130.869 E.00252
G1 X133.97 Y130.783 E.01597
G1 X134.471 Y130.742 E.01576
G1 X134.991 Y130.736 E.01631
G1 X147.74 Y130.732 E.39974
G1 X147.939 Y130.768 E.00634
G1 X148.126 Y130.884 E.0069
G1 X148.254 Y131.063 E.0069
G1 X148.305 Y131.298 E.00754
G1 X148.305 Y145.74 E.45282
G1 X148.228 Y146.025 E.00926
G1 X148.012 Y146.236 E.00947
G1 X147.74 Y146.306 E.00881
G1 X133.293 Y146.306 E.45297
G1 X133.065 Y146.256 E.00732
G1 X132.881 Y146.124 E.0071
G1 X132.758 Y145.912 E.00768
G1 X132.731 Y145.74 E.00546
G1 X132.734 Y133.019 E.39886
G1 X132.75 Y132.499 E.01631
G1 X132.736 Y132.44 E.0019
G1 X132.338 Y132.782 E.01645
G1 X131.772 Y133.035 E.01944
G1 X131.113 Y133.143 E.02094
G1 X130.453 Y133.076 E.0208
G1 X129.833 Y132.835 E.02086
G1 X129.297 Y132.42 E.02125
G1 X129 Y131.981 E.01662
M204 S1000
G1 X128.773 Y131.609 F10800
M204 S800
;TYPE:External perimeter
;WIDTH:0.441101
G1 F1200
G1 X128.633 Y131.753 E.00665
;WIDTH:0.419999
G1 X128.095 Y131.826 E.01702
G1 X127.481 Y131.873 E.01931
G1 X126.971 Y131.879 E.01599
G1 X114.247 Y131.879 E.39895
G1 X114.096 Y131.804 E.00529
G1 X114.058 Y131.691 E.00374
G1 X114.058 Y117.248 E.45285
G1 X114.121 Y117.108 E.00481
G1 X114.247 Y117.059 E.00424
G1 X114.469 Y117.059 E.00696
G1 X128.69 Y117.059 E.44589
G1 X128.841 Y117.135 E.0053
G1 X128.878 Y117.248 E.00373
G1 X128.875 Y128.47 E.35186
G1 X128.856 Y128.978 E.01594
;WIDTH:0.448327
G1 X128.728 Y130.055 E.03656
;WIDTH:0.421269
G1 X128.711 Y130.581 E.01656
;WIDTH:0.418983
G1 X128.724 Y131.118 E.0168
;WIDTH:0.441101
G1 X128.767 Y131.549 E.01434
M204 S1000
;WIPE_START
G1 F8640
G1 X128.773 Y131.609 E-.01392
G1 X128.633 Y131.753 E-.04637
;WIPE_END
G1 E-.73971 F2100
G1 Z.6 F720
G1 X147.624 Y111.784 F10800
G1 Z.2 F720
G1 E.8 F2100
M204 S800
;TYPE:Perimeter
;WIDTH:0.419999
G1 F1200
G1 X147.585 Y111.519 E.0084
G1 X147.623 Y111.009 E.01603
G1 X147.855 Y110.362 E.02155
